static/assets/template/assets/img/icons/essential/detailed/Package_sent_2.svg

<svg height="149" viewBox="0 0 110 149" width="110" xmlns="http://www.w3.org/2000/svg"><g fill="none" fill-rule="evenodd" transform="translate(1 1)"><g fill-rule="nonzero"><path d="m79.3 6.7c13 6.5 23.1 17.9 28 31.8-2.3-.6-4.7-.9-7.2-.9-8.6 0-16.4 3.7-21.4 9.6-.1.1.1-.1 0 0 0-.2 0 .2 0 0-5.1-7.6-14.2-12.9-24.5-12.9-11.1 0-20.8 5.9-25.6 14.4-.1.1.1-.1 0 0 0-.2 0 .2 0 0-4.9-6.6-13.1-11.1-22.3-11.1-1.9 0-3.7.2-5.5.5 7.6-21 27.2-36.2 50.6-37.3h.1c.8 0 1.7-.1 2.5-.1 7.5 0 14.6 1.5 21.2 4.1"/><path d="m78.7 47.2c-5.1-7.6-14.2-12.9-24.5-12.9-11.1 0-20.8 5.9-25.6 14.4-.1.1.1-.1 0 0 0-.2 0 .2 0 0 .9-26.5 14-47.9 22.8-47.9h.1c8.6 0 24 19.7 27.2 46.4z"/><path d="m78.7 47.2c-.1 0 0-.1 0 0 0-.2 0 .1 0 0 .1.1-.1-.2 0 0z"/><path d="m28.5 48.7c0 .1.1-.1 0 0 .1-.2 0 .2 0 0 .1.1 0-.1 0 0z"/></g><path d="m50.7.8c-.8 0-1.6 0-2.4.1h-.1c-.2 0-.4 0-.7 0-22 1.2-40.4 14-47.5 32.7 1.7-.3 3.5-.7 5.3-.5 7.9 1.2 12.2 4.8 17.5 10s0 .1 0 0c4.6-7.7 14.2-13 24.8-13 9.8 0 20.2 6.1 25.1 12.9 4.7-5.3 13.8-9 22-9 2.4 0 4.7.3 6.9.8-7.5-19.8-27.5-34-50.9-34z" fill-rule="nonzero" transform="translate(5 5)"/><g transform="translate(31 99)"><path d="m47.2 2.8v41.8c0 1.5-1.2 2.7-2.7 2.7h-41.8c-1.5 0-2.7-1.2-2.7-2.7v-41.8c0-1.5 1.2-2.7 2.7-2.7h41.8c1.5 0 2.7 1.2 2.7 2.7z" fill-rule="nonzero"/><path d="m47.2 4.3v40.4c0 1.4-1.1 2.6-2.5 2.6h-39.6c-1.4 0-2.5-1.2-2.5-2.6v-40.4c0-1.4 1.1-2.6 2.5-2.6h39.6c1.3 0 2.5 1.1 2.5 2.6z" fill-rule="nonzero"/><g stroke-linecap="round" stroke-linejoin="round" stroke-width="3"><path d="m15.8.1h28.7c1.5 0 2.7 1.2 2.7 2.7v41.8c0 1.5-1.2 2.7-2.7 2.7h-41.8c-1.5 0-2.7-1.2-2.7-2.7v-41.8c0-1.2.8-2.2 1.8-2.5"/><path d="m11 .1h.4"/><path d="m18.1.1h11.1v13l-3.1 2.7-4.5-2.7-3.6 2.7v-9.5" fill-rule="nonzero"/></g></g><g stroke-linecap="round" stroke-linejoin="round" stroke-width="3"><g><path d="m80.9 7.6c12.2 6.6 21.7 17.6 26.4 30.9-2.3-.6-4.7-.9-7.2-.9-8.6 0-16.4 3.7-21.4 9.6-.1.1.1-.1 0 0 0-.2 0 .2 0 0-5.1-7.6-14.2-12.9-24.5-12.9-11.1 0-20.8 5.9-25.6 14.4-.1.1.1-.1 0 0 0-.2 0 .2 0 0-4.9-6.6-13.1-11.1-22.3-11.1-1.9 0-3.7.2-5.5.5 7.6-21 27.2-36.2 50.6-37.3h.1c.8 0 1.7-.1 2.5-.1 7.9 0 15.5 1.6 22.3 4.6"/><path d="m33.2 23.6c4.8-13.7 12.4-22.8 18.2-22.8h.1c8.7 0 24.1 19.6 27.3 46.3-5.1-7.6-14.2-12.9-24.5-12.9-11.1 0-20.8 5.9-25.6 14.4-.1.1.1-.1 0 0 0-.2 0 .2 0 0 .2-6.8 1.3-13.3 2.8-19.1"/><path d="m78.7 47.2c-.1 0 0-.1 0 0 0-.2 0 .1 0 0 .1.1-.1-.2 0 0z"/><path d="m28.5 48.7c0 .1.1-.1 0 0 .1-.2 0 .2 0 0 .1.1 0-.1 0 0z"/></g><path d="m71.8 78.7-17.8 20.4-52.7-60.8"/><path d="m107.1 38.4-31.5 36"/><path d="m32.3 55.8-3.8-7.5"/><path d="m34.3 59.8-.1-.2"/><path d="m78.7 47-24.7 52.1-17.2-34.3"/></g></g></svg>

<?xml version="1.0" encoding="UTF-8"?>
<svg width="110px" height="149px" viewBox="0 0 110 149" version="1.1" xmlns="http://www.w3.org/2000/svg" xmlns:xlink="http://www.w3.org/1999/xlink">
    <!-- Generator: Sketch 51.2 (57519) - http://www.bohemiancoding.com/sketch -->
    <title>Package_sent_2</title>
    <desc>Created with Sketch.</desc>
    <defs></defs>
    <g id="Page-1" stroke="none" stroke-width="1" fill="none" fill-rule="evenodd">
        <g id="Package_sent_2" transform="translate(1.000000, 1.000000)">
            <g id="Group" class="fill-neutral" fill-rule="nonzero">
                <path d="M79.3,6.7 C92.3,13.2 102.4,24.6 107.3,38.5 C105,37.9 102.6,37.6 100.1,37.6 C91.5,37.6 83.7,41.3 78.7,47.2 C78.6,47.3 78.8,47.1 78.7,47.2 C78.7,47 78.7,47.4 78.7,47.2 C73.6,39.6 64.5,34.3 54.2,34.3 C43.1,34.3 33.4,40.2 28.6,48.7 C28.5,48.8 28.7,48.6 28.6,48.7 C28.6,48.5 28.6,48.9 28.6,48.7 C23.7,42.1 15.5,37.6 6.3,37.6 C4.4,37.6 2.6,37.8 0.8,38.1 C8.4,17.1 28,1.9 51.4,0.8 L51.5,0.8 C52.3,0.8 53.2,0.7 54,0.7 C61.5,0.7 68.6,2.2 75.2,4.8" id="Shape"></path>
                <path d="M78.7,47.2 C73.6,39.6 64.5,34.3 54.2,34.3 C43.1,34.3 33.4,40.2 28.6,48.7 C28.5,48.8 28.7,48.6 28.6,48.7 C28.6,48.5 28.6,48.9 28.6,48.7 C29.5,22.2 42.6,0.8 51.4,0.8 L51.5,0.8 C60.1,0.8 75.5,20.5 78.7,47.2 Z" id="Shape"></path>
                <path d="M78.7,47.2 C78.6,47.2 78.7,47.1 78.7,47.2 C78.7,47 78.7,47.3 78.7,47.2 C78.8,47.3 78.6,47 78.7,47.2 Z" id="Shape"></path>
                <path d="M28.5,48.7 C28.5,48.8 28.6,48.6 28.5,48.7 C28.6,48.5 28.5,48.9 28.5,48.7 C28.6,48.8 28.5,48.6 28.5,48.7 Z" id="Shape"></path>
            </g>
            <g id="Group" transform="translate(5.000000, 5.000000)" class="fill-primary-100" fill-rule="nonzero">
                <path d="M50.7,0.8 C49.9,0.8 49.1,0.8 48.3,0.9 L48.2,0.9 C48,0.9 47.8,0.9 47.5,0.9 C25.5,2.1 7.1,14.9 0,33.6 C1.7,33.3 3.5,32.9 5.3,33.1 C13.2,34.3 17.5,37.9 22.8,43.1 C22.8,43.1 22.8,43.1 22.8,43.1 C22.8,43.1 22.8,43.2 22.8,43.1 C22.8,43.1 22.8,43.1 22.8,43.1 C27.4,35.4 37,30.1 47.6,30.1 C57.4,30.1 67.8,36.2 72.7,43 C72.7,43 72.7,43 72.7,43 C72.7,43.1 72.7,43 72.7,43 C72.7,43 72.7,43 72.7,43 C77.4,37.7 86.5,34 94.7,34 C97.1,34 99.4,34.3 101.6,34.8 C94.1,15 74.1,0.8 50.7,0.8 Z" id="Shape"></path>
            </g>
            <g id="Group" transform="translate(31.000000, 99.000000)">
                <path d="M47.2,2.8 L47.2,44.6 C47.2,46.1 46,47.3 44.5,47.3 L2.7,47.3 C1.2,47.3 0,46.1 0,44.6 L0,2.8 C0,1.3 1.2,0.1 2.7,0.1 L44.5,0.1 C46,0.1 47.2,1.3 47.2,2.8 Z" id="Shape" class="fill-neutral" fill-rule="nonzero"></path>
                <path d="M47.2,4.3 L47.2,44.7 C47.2,46.1 46.1,47.3 44.7,47.3 L5.1,47.3 C3.7,47.3 2.6,46.1 2.6,44.7 L2.6,4.3 C2.6,2.9 3.7,1.7 5.1,1.7 L44.7,1.7 C46,1.7 47.2,2.8 47.2,4.3 Z" id="Shape" class="fill-primary-300" fill-rule="nonzero"></path>
                <path d="M15.8,0.1 L44.5,0.1 C46,0.1 47.2,1.3 47.2,2.8 L47.2,44.6 C47.2,46.1 46,47.3 44.5,47.3 L2.7,47.3 C1.2,47.3 0,46.1 0,44.6 L0,2.8 C0,1.6 0.8,0.6 1.8,0.3" id="Shape" class="stroke-primary" stroke-width="3" stroke-linecap="round" stroke-linejoin="round"></path>
                <path d="M11,0.1 L11.4,0.1" id="Shape" class="stroke-primary" stroke-width="3" stroke-linecap="round" stroke-linejoin="round"></path>
                <polyline id="Shape" stroke-width="3" class="stroke-primary fill-primary-100" fill-rule="nonzero" stroke-linecap="round" stroke-linejoin="round" points="18.1 0.1 29.2 0.1 29.2 13.1 26.1 15.8 21.6 13.1 18 15.8 18 6.3"></polyline>
            </g>
            <g id="Group" class="stroke-primary" stroke-linecap="round" stroke-linejoin="round" stroke-width="3">
                <path d="M80.9,7.6 C93.1,14.2 102.6,25.2 107.3,38.5 C105,37.9 102.6,37.6 100.1,37.6 C91.5,37.6 83.7,41.3 78.7,47.2 C78.6,47.3 78.8,47.1 78.7,47.2 C78.7,47 78.7,47.4 78.7,47.2 C73.6,39.6 64.5,34.3 54.2,34.3 C43.1,34.3 33.4,40.2 28.6,48.7 C28.5,48.8 28.7,48.6 28.6,48.7 C28.6,48.5 28.6,48.9 28.6,48.7 C23.7,42.1 15.5,37.6 6.3,37.6 C4.4,37.6 2.6,37.8 0.8,38.1 C8.4,17.1 28,1.9 51.4,0.8 L51.5,0.8 C52.3,0.8 53.2,0.7 54,0.7 C61.9,0.7 69.5,2.3 76.3,5.3" id="Shape"></path>
                <path d="M33.2,23.6 C38,9.9 45.6,0.8 51.4,0.8 L51.5,0.8 C60.2,0.8 75.6,20.4 78.8,47.1 C73.7,39.5 64.6,34.2 54.3,34.2 C43.2,34.2 33.5,40.1 28.7,48.6 C28.6,48.7 28.8,48.5 28.7,48.6 C28.7,48.4 28.7,48.8 28.7,48.6 C28.9,41.8 30,35.3 31.5,29.5" id="Shape"></path>
                <path d="M78.7,47.2 C78.6,47.2 78.7,47.1 78.7,47.2 C78.7,47 78.7,47.3 78.7,47.2 C78.8,47.3 78.6,47 78.7,47.2 Z" id="Shape"></path>
                <path d="M28.5,48.7 C28.5,48.8 28.6,48.6 28.5,48.7 C28.6,48.5 28.5,48.9 28.5,48.7 C28.6,48.8 28.5,48.6 28.5,48.7 Z" id="Shape"></path>
            </g>
            <polyline id="Shape" class="stroke-primary" stroke-width="3" stroke-linecap="round" stroke-linejoin="round" points="71.8 78.7 54 99.1 1.3 38.3"></polyline>
            <path d="M107.1,38.4 L75.6,74.4" id="Shape" class="stroke-primary" stroke-width="3" stroke-linecap="round" stroke-linejoin="round"></path>
            <path d="M32.3,55.8 L28.5,48.3" id="Shape" class="stroke-primary" stroke-width="3" stroke-linecap="round" stroke-linejoin="round"></path>
            <path d="M34.3,59.8 L34.2,59.6" id="Shape" class="stroke-primary" stroke-width="3" stroke-linecap="round" stroke-linejoin="round"></path>
            <polyline id="Shape" class="stroke-primary" stroke-width="3" stroke-linecap="round" stroke-linejoin="round" points="78.7 47 54 99.1 36.8 64.8"></polyline>
        </g>
    </g>
</svg>
